X: 2
T:Lady Ann Montgomery
M:4/4
L:1/8
R:Reel
K:D
FADA FADA|FAdA BAdA|FADF EDEF|DB,A,B, D3E|FADA FADA|FAdA BABc|dBAF EDEF|
DB,A,B, D3E:||
f2 fe fede|fedB ABde|f2fe fede|fgaf efde|f2 fe fede|fedB ABde|f2ed BdAd|
(3efg fe d3e:||
